src/assets/bold/lm-sparkle-paragraph-bold.svg

<svg width="24" height="24" viewBox="0 0 24 24" fill="none" xmlns="http://www.w3.org/2000/svg" fill="currentColor">
<path d="M5.87754 2.28297L6.22554 3.35397C6.33357 3.67984 6.51635 3.9759 6.75927 4.21848C7.0022 4.46106 7.29852 4.64342 7.62454 4.75097L8.69554 5.09897L8.71654 5.10497C8.79915 5.13405 8.87069 5.18805 8.9213 5.25952C8.97191 5.33099 8.99909 5.4164 8.99909 5.50397C8.99909 5.59154 8.97191 5.67696 8.9213 5.74843C8.87069 5.81989 8.79915 5.87389 8.71654 5.90297L7.64554 6.25097C7.31952 6.35853 7.0232 6.54089 6.78027 6.78347C6.53735 7.02604 6.35457 7.32211 6.24654 7.64797L5.89854 8.71797C5.86947 8.80058 5.81547 8.87212 5.744 8.92273C5.67253 8.97334 5.58711 9.00052 5.49954 9.00052C5.41197 9.00052 5.32656 8.97334 5.25509 8.92273C5.18362 8.87212 5.12962 8.80058 5.10054 8.71797L4.75154 7.64797C4.64437 7.32138 4.46217 7.02444 4.21954 6.78097C3.97678 6.53703 3.68016 6.35344 3.35354 6.24497L2.28254 5.89697C2.19994 5.86789 2.1284 5.81389 2.07779 5.74243C2.02718 5.67096 2 5.58554 2 5.49797C2 5.4104 2.02718 5.32499 2.07779 5.25352C2.1284 5.18205 2.19994 5.12805 2.28254 5.09897L3.35354 4.75097C3.67549 4.64051 3.96742 4.45684 4.20636 4.21443C4.4453 3.97203 4.62473 3.67748 4.73054 3.35397L5.07854 2.28397C5.10741 2.20102 5.16138 2.12911 5.23297 2.07823C5.30456 2.02734 5.39021 2 5.47804 2C5.56587 2 5.65153 2.02734 5.72311 2.07823C5.7947 2.12911 5.84868 2.20002 5.87754 2.28297Z" fill="black"/>
<path d="M2 11.75C2 11.5511 2.07902 11.3603 2.21967 11.2197C2.36032 11.079 2.55109 11 2.75 11H21.25C21.4489 11 21.6397 11.079 21.7803 11.2197C21.921 11.3603 22 11.5511 22 11.75C22 11.9489 21.921 12.1397 21.7803 12.2803C21.6397 12.421 21.4489 12.5 21.25 12.5H2.75C2.55109 12.5 2.36032 12.421 2.21967 12.2803C2.07902 12.1397 2 11.9489 2 11.75ZM2.75 20.5H14C14.1989 20.5 14.3897 20.421 14.5303 20.2803C14.671 20.1397 14.75 19.9489 14.75 19.75C14.75 19.5511 14.671 19.3603 14.5303 19.2197C14.3897 19.079 14.1989 19 14 19C11.9497 19 4.80025 19 2.75 19C2.55109 19 2.36032 19.079 2.21967 19.2197C2.07902 19.3603 2 19.5511 2 19.75C2 19.9489 2.07902 20.1397 2.21967 20.2803C2.36032 20.421 2.55109 20.5 2.75 20.5ZM9.5 15H2.75C2.55109 15 2.36032 15.079 2.21967 15.2197C2.07902 15.3603 2 15.5511 2 15.75C2 15.9489 2.07902 16.1397 2.21967 16.2803C2.36032 16.421 2.55109 16.5 2.75 16.5H9.5C9.69891 16.5 9.88968 16.421 10.0303 16.2803C10.171 16.1397 10.25 15.9489 10.25 15.75C10.25 15.5511 10.171 15.3603 10.0303 15.2197C9.88968 15.079 9.69891 15 9.5 15Z" fill="black"/>
</svg>

<svg xmlns="http://www.w3.org/2000/svg" width="24" height="24" fill="currentColor" viewBox="0 0 24 24">
  <path d="m5.878 2.283.348 1.071a2.2 2.2 0 0 0 1.399 1.397l1.07.348.022.006a.423.423 0 0 1 0 .798l-1.071.348a2.2 2.2 0 0 0-1.4 1.397L5.9 8.718a.423.423 0 0 1-.798 0l-.35-1.07a2.2 2.2 0 0 0-1.397-1.403l-1.071-.348a.423.423 0 0 1 0-.798l1.07-.348a2.2 2.2 0 0 0 1.378-1.397l.348-1.07a.423.423 0 0 1 .799-.001ZM2 11.75a.75.75 0 0 1 .75-.75h18.5a.75.75 0 1 1 0 1.5H2.75a.75.75 0 0 1-.75-.75Zm.75 8.75H14a.75.75 0 1 0 0-1.5H2.75a.75.75 0 1 0 0 1.5ZM9.5 15H2.75a.75.75 0 1 0 0 1.5H9.5a.75.75 0 1 0 0-1.5Z"/>
</svg>
